X: 20413
T: John Drury
R: waltz
M: 3/4
K: Dmajor
B2 E2 E2|FEFA B2|A2 D2 F2|A2 D2 F2|
B2 E2 E2|FEFA B2|d2 Bc d2|A4 F2||
E2 e2 e2|e2 fedc|d2 edcB|A2 F2 D2|
E2 e2 e2|e2 fedc|d2 B2 c2|d4 c2|
B2 GA B2|A2 FG A2|d2 Bc d2|A2 F2 D2|
BAFA B2|A2 F2 A2|d4 F2||

